Default.style/vet.svg

<?xml version="1.0" encoding="UTF-8" standalone="no"?>
<svg width="31px" height="30px" viewBox="0 0 31 30" version="1.1" xmlns="http://www.w3.org/2000/svg" xmlns:xlink="http://www.w3.org/1999/xlink" xmlns:sketch="http://www.bohemiancoding.com/sketch/ns">
    <!-- Generator: Sketch 3.5.2 (25235) - http://www.bohemiancoding.com/sketch -->
    <title>vet</title>
    <desc>Created with Sketch.</desc>
    <defs></defs>
    <g id="p" stroke="none" stroke-width="1" fill="none" fill-rule="evenodd" sketch:type="MSPage">
        <g id="vet" sketch:type="MSLayerGroup" fill="#888888">
            <path d="M30.7353205,21.5873076 C30.2123205,22.7073076 29.0703205,23.3233076 28.1863205,22.9633076 C27.3013205,22.6043076 27.0103205,21.4053076 27.5343205,20.2853076 C28.0583205,19.1653076 29.2003205,18.5503076 30.0833205,18.9093076 C30.9683205,19.2683076 31.2593205,20.4673076 30.7353205,21.5873076 L30.7353205,21.5873076 Z M24.9683205,19.3213076 C23.9763205,19.1233076 23.3723205,17.7773076 23.6203205,16.3153076 C23.8683205,14.8523076 24.8733205,13.8273076 25.8663205,14.0253076 C26.8583205,14.2233076 27.4623205,15.5693076 27.2143205,17.0313076 C26.9663205,18.4943076 25.9603205,19.5193076 24.9683205,19.3213076 L24.9683205,19.3213076 Z M26.0223205,23.9353076 C26.9833205,24.9723076 27.7273205,25.3683076 28.1923205,26.6973076 C28.6023205,27.8683076 28.1673205,29.1533076 27.0303205,29.7673076 C25.8933205,30.3803076 24.1633205,29.6133076 23.5443205,29.4593076 C23.3193205,29.4043076 23.0753205,29.3783076 22.8553205,29.3693076 L22.8473205,29.3833076 C22.8473205,29.3833076 22.7053205,29.3693076 22.4973205,29.3653076 C22.2883205,29.3693076 22.1473205,29.3833076 22.1473205,29.3833076 L22.1373205,29.3693076 C21.9173205,29.3793076 21.6743205,29.4043076 21.4493205,29.4593076 C20.8303205,29.6123076 19.0973205,30.3803076 17.9623205,29.7673076 C16.8263205,29.1533076 16.3913205,27.8693076 16.8013205,26.6973076 C17.2663205,25.3673076 18.0103205,24.9713076 18.9713205,23.9353076 C20.2053205,22.6023076 20.2873205,21.9403076 21.2173205,21.3273076 C21.7933205,20.9473076 22.1133205,20.9413076 22.4963205,20.9433076 C22.8803205,20.9413076 23.1993205,20.9473076 23.7733205,21.3273076 C24.7063205,21.9403076 24.7883205,22.6023076 26.0223205,23.9353076 L26.0223205,23.9353076 Z M20.0243205,19.3043076 C19.0333205,19.5013076 18.0283205,18.4793076 17.7803205,17.0213076 C17.5323205,15.5633076 18.1353205,14.2213076 19.1283205,14.0243076 C20.1213205,13.8273076 21.1263205,14.8493076 21.3743205,16.3073076 C21.6223205,17.7653076 21.0183205,19.1073076 20.0243205,19.3043076 L20.0243205,19.3043076 Z M16.8083205,22.9633076 C15.9233205,23.3233076 14.7843205,22.7073076 14.2603205,21.5873076 C13.7363205,20.4673076 14.0283205,19.2683076 14.9123205,18.9093076 C15.7953205,18.5503076 16.9353205,19.1653076 17.4613205,20.2853076 C17.9833205,21.4053076 17.6903205,22.6043076 16.8083205,22.9633076 L16.8083205,22.9633076 Z" id="Shape" sketch:type="MSShapeGroup"></path>
            <path d="M18,12 L12,12 L12,18 L6,18 L6,12 L0,12 L0,6 L6,6 L6,0 L12,0 L12,6 L18,6 L18,12 L18,12 Z" id="Shape" sketch:type="MSShapeGroup"></path>
        </g>
    </g>
</svg>

<svg width="31" height="30" xmlns="http://www.w3.org/2000/svg"><g fill="#888" fill-rule="evenodd"><path d="M30.735 21.587c-.523 1.12-1.665 1.736-2.549 1.376-.885-.359-1.176-1.558-.652-2.678.524-1.12 1.666-1.735 2.55-1.376.884.36 1.175 1.558.651 2.678Zm-5.767-2.266c-.992-.198-1.596-1.544-1.348-3.006.248-1.463 1.253-2.488 2.246-2.29.992.198 1.596 1.544 1.348 3.006-.248 1.463-1.254 2.488-2.246 2.29Zm1.054 4.614c.961 1.037 1.705 1.433 2.17 2.762.41 1.171-.025 2.456-1.162 3.07-1.137.613-2.867-.154-3.486-.308a3.587 3.587 0 0 0-.689-.09l-.008.014s-.142-.014-.35-.018c-.209.004-.35.018-.35.018l-.01-.014c-.22.01-.463.035-.688.09-.619.153-2.352.921-3.487.308-1.136-.614-1.57-1.898-1.16-3.07.464-1.33 1.208-1.726 2.17-2.762 1.233-1.333 1.315-1.995 2.245-2.608.576-.38.896-.386 1.28-.384.383-.002.702.004 1.276.384.933.613 1.015 1.275 2.25 2.608Zm-5.998-4.63c-.99.196-1.996-.826-2.244-2.284-.248-1.458.355-2.8 1.348-2.997.993-.197 1.998.825 2.246 2.283s-.356 2.8-1.35 2.997Zm-3.216 3.658c-.885.36-2.024-.256-2.548-1.376-.524-1.12-.232-2.319.652-2.678.883-.359 2.023.256 2.55 1.376.521 1.12.228 2.32-.654 2.678ZM18 12h-6v6H6v-6H0V6h6V0h6v6h6v6Z"/></g></svg>
